svg/OSM-icons/amenity #7bffff °373737 !label=enamenities,deEinrichtungen/12280;amenity=vending_machine;!#vending=condoms;[vending_machine];!label=encondom machine,deKondom- automat.svg

<?xml version="1.0" encoding="utf-8"?>
<!-- Generator: Adobe Illustrator 15.0.0, SVG Export Plug-In . SVG Version: 6.00 Build 0)  -->
<!DOCTYPE svg PUBLIC "-//W3C//DTD SVG 1.1//EN" "http://www.w3.org/Graphics/SVG/1.1/DTD/svg11.dtd">
<svg version="1.1" xmlns="http://www.w3.org/2000/svg" xmlns:xlink="http://www.w3.org/1999/xlink" x="0px" y="0px" width="580px"
	 height="580px" viewBox="0 0 580 580" enable-background="new 0 0 580 580" xml:space="preserve">
<g id="Layer_1">
	<g id="Layer_1_1_">
		<g id="Layer_2">
			<g id="g1327">
				<path id="path1329" fill="#111111" stroke="#EEEEEE" stroke-width="3.408" d="M66.275,1.768
					c-41.335,0-64.571,21.371-64.571,65.036v450.123c0,40.844,20.895,62.229,62.192,62.229H515.92
					c41.307,0,62.229-20.315,62.229-62.229V66.804c0-42.601-20.925-65.036-63.521-65.036C514.624,1.768,66.133,1.625,66.275,1.768z"
					/>
			</g>
		</g>
	</g>
</g>
<g id="Layer_2_1_">
	<g>
		<path fill="#FFFFFF" d="M44.5,34.5v343h201v-343H44.5z M212,70c3.59,0,6.5,2.91,6.5,6.5S215.59,83,212,83s-6.5-2.91-6.5-6.5
			S208.41,70,212,70z M212,86.847c3.59,0,6.5,2.91,6.5,6.5s-2.91,6.5-6.5,6.5s-6.5-2.91-6.5-6.5S208.41,86.847,212,86.847z
			 M212,103.693c3.59,0,6.5,2.91,6.5,6.5s-2.91,6.5-6.5,6.5s-6.5-2.91-6.5-6.5S208.41,103.693,212,103.693z M212,120.54
			c3.59,0,6.5,2.91,6.5,6.5s-2.91,6.5-6.5,6.5s-6.5-2.91-6.5-6.5S208.41,120.54,212,120.54z M212,137.387c3.59,0,6.5,2.91,6.5,6.5
			s-2.91,6.5-6.5,6.5s-6.5-2.91-6.5-6.5S208.41,137.387,212,137.387z M198.5,344.5h-127v-282h127V344.5z M236.5,168h-31v-6h31V168z
			 M230,150.387c-3.59,0-6.5-2.91-6.5-6.5s2.91-6.5,6.5-6.5s6.5,2.91,6.5,6.5S233.59,150.387,230,150.387z M230,133.54
			c-3.59,0-6.5-2.91-6.5-6.5s2.91-6.5,6.5-6.5s6.5,2.91,6.5,6.5S233.59,133.54,230,133.54z M230,116.693c-3.59,0-6.5-2.91-6.5-6.5
			s2.91-6.5,6.5-6.5s6.5,2.91,6.5,6.5S233.59,116.693,230,116.693z M230,99.847c-3.59,0-6.5-2.91-6.5-6.5s2.91-6.5,6.5-6.5
			s6.5,2.91,6.5,6.5S233.59,99.847,230,99.847z M230,83c-3.59,0-6.5-2.91-6.5-6.5s2.91-6.5,6.5-6.5s6.5,2.91,6.5,6.5
			S233.59,83,230,83z"/>
		<rect x="79.833" y="299.166" fill="#FFFFFF" width="112.667" height="38"/>
		<g>
			<rect x="79.833" y="90.847" fill="#FFFFFF" width="112.667" height="5"/>
		</g>
		<g>
			<rect x="79.833" y="118.04" fill="#FFFFFF" width="112.667" height="5"/>
		</g>
		<g>
			<rect x="79.833" y="145.233" fill="#FFFFFF" width="112.667" height="5"/>
		</g>
		<g>
			<rect x="79.833" y="172.427" fill="#FFFFFF" width="112.667" height="5"/>
		</g>
		<g>
			<rect x="79.833" y="199.62" fill="#FFFFFF" width="112.667" height="5"/>
		</g>
		<g>
			<rect x="79.833" y="226.813" fill="#FFFFFF" width="112.667" height="5"/>
		</g>
		<g>
			<rect x="79.833" y="254.007" fill="#FFFFFF" width="112.667" height="5"/>
		</g>
	</g>
	<g>
		<path fill="#FFFFFF" d="M411.421,279.501c-72.897,0-131.993,59.096-131.993,131.992c0,72.899,59.096,131.994,131.993,131.994
			c72.898,0,131.994-59.095,131.994-131.994C543.415,338.597,484.319,279.501,411.421,279.501z M411.421,503.389
			c-50.752,0-91.894-41.144-91.894-91.896c0-50.751,41.142-91.894,91.894-91.894s91.896,41.143,91.896,91.894
			C503.316,462.245,462.173,503.389,411.421,503.389z"/>
		<circle opacity="0.5" fill="#FFFFFF" cx="411.421" cy="411.494" r="91.895"/>
	</g>
</g>
</svg>

<svg xmlns="http://www.w3.org/2000/svg" viewBox="0 0 580 580" enable-background="new 0 0 580 580"><path fill="#111" stroke="#eee" stroke-width="3.408" d="m66.28 1.768c-41.34 0-64.57 21.371-64.57 65.04v450.12c0 40.844 20.895 62.23 62.19 62.23h452.02c41.31 0 62.23-20.315 62.23-62.23v-450.12c0-42.601-20.925-65.04-63.52-65.04-.004 0-448.5-.143-448.35 0z"/><g fill="#fff"><path d="m44.5 34.5v343h201v-343h-201m167.5 35.5c3.59 0 6.5 2.91 6.5 6.5s-2.91 6.5-6.5 6.5-6.5-2.91-6.5-6.5 2.91-6.5 6.5-6.5m0 16.847c3.59 0 6.5 2.91 6.5 6.5s-2.91 6.5-6.5 6.5-6.5-2.91-6.5-6.5 2.91-6.5 6.5-6.5m0 16.846c3.59 0 6.5 2.91 6.5 6.5s-2.91 6.5-6.5 6.5-6.5-2.91-6.5-6.5 2.91-6.5 6.5-6.5m0 16.847c3.59 0 6.5 2.91 6.5 6.5s-2.91 6.5-6.5 6.5-6.5-2.91-6.5-6.5 2.91-6.5 6.5-6.5m0 16.847c3.59 0 6.5 2.91 6.5 6.5s-2.91 6.5-6.5 6.5-6.5-2.91-6.5-6.5 2.91-6.5 6.5-6.5m-13.5 207.11h-127v-282h127v282m38-176.5h-31v-6h31v6m-6.5-17.613c-3.59 0-6.5-2.91-6.5-6.5s2.91-6.5 6.5-6.5 6.5 2.91 6.5 6.5-2.91 6.5-6.5 6.5m0-16.847c-3.59 0-6.5-2.91-6.5-6.5s2.91-6.5 6.5-6.5 6.5 2.91 6.5 6.5-2.91 6.5-6.5 6.5m0-16.847c-3.59 0-6.5-2.91-6.5-6.5s2.91-6.5 6.5-6.5 6.5 2.91 6.5 6.5-2.91 6.5-6.5 6.5m0-16.846c-3.59 0-6.5-2.91-6.5-6.5s2.91-6.5 6.5-6.5 6.5 2.91 6.5 6.5-2.91 6.5-6.5 6.5m0-16.847c-3.59 0-6.5-2.91-6.5-6.5s2.91-6.5 6.5-6.5 6.5 2.91 6.5 6.5-2.91 6.5-6.5 6.5"/><path d="m79.83 299.17h112.67v38h-112.67z"/><path d="m79.83 90.85h112.67v5h-112.67z"/><path d="m79.83 118.04h112.67v5h-112.67z"/><path d="m79.83 145.23h112.67v5h-112.67z"/><path d="m79.83 172.43h112.67v5h-112.67z"/><path d="m79.83 199.62h112.67v5h-112.67z"/><path d="m79.83 226.81h112.67v5h-112.67z"/><path d="m79.83 254.01h112.67v5h-112.67z"/><path d="m411.42 279.5c-72.897 0-131.99 59.1-131.99 131.99 0 72.899 59.1 131.99 131.99 131.99 72.898 0 131.99-59.1 131.99-131.99 0-72.896-59.1-131.99-131.99-131.99m0 223.89c-50.752 0-91.89-41.14-91.89-91.9 0-50.751 41.14-91.89 91.89-91.89s91.9 41.14 91.9 91.89c-.0001 50.752-41.14 91.9-91.9 91.9"/><circle opacity=".5" cx="411.42" cy="411.49" r="91.89"/></g></svg>
